src/App/SitePart/AuthPage/ContinueWithVK/img/icon.svg

<svg width="30" height="30" viewBox="0 0 30 30" fill="none" xmlns="http://www.w3.org/2000/svg">
<path d="M19.6048 0H10.3952C1.99012 0 0 1.99012 0 10.3952V19.6048C0 28.0099 1.99012 30 10.3952 30H19.6048C28.0099 30 30 28.0099 30 19.6048V10.3952C30 1.99012 27.9887 0 19.6048 0ZM24.2202 21.4044H22.0395C21.2138 21.4044 20.9598 20.7481 19.4778 19.2449C18.1863 17.9958 17.6147 17.8264 17.2971 17.8264C16.8525 17.8264 16.7255 17.9534 16.7255 18.5674V20.5363C16.7255 21.0656 16.5561 21.3832 15.1588 21.3832C12.8511 21.3832 10.2893 19.9859 8.48977 17.3818C5.77982 13.5709 5.03881 10.7128 5.03881 10.12C5.03881 9.8024 5.16584 9.506 5.77982 9.506H7.96048C8.51094 9.506 8.72265 9.76006 8.93437 10.3529C10.0141 13.4651 11.8137 16.1962 12.5547 16.1962C12.8299 16.1962 12.957 16.0692 12.957 15.3705V12.1524C12.8723 10.6704 12.0889 10.5434 12.0889 10.0141C12.0889 9.76006 12.3006 9.506 12.6394 9.506H16.0692C16.5349 9.506 16.7043 9.76006 16.7043 10.3105V14.6507C16.7043 15.1164 16.916 15.2858 17.043 15.2858C17.3183 15.2858 17.5512 15.1164 18.0593 14.6083C19.626 12.8511 20.7481 10.1411 20.7481 10.1411C20.8963 9.82357 21.1503 9.52717 21.7008 9.52717H23.8814C24.5378 9.52717 24.686 9.86591 24.5378 10.3317C24.2625 11.602 21.5949 15.3705 21.5949 15.3705C21.362 15.7516 21.2773 15.921 21.5949 16.3444C21.8278 16.662 22.59 17.3183 23.0981 17.9111C24.0296 18.9697 24.7495 19.8589 24.94 20.4728C25.1517 21.0868 24.8342 21.4044 24.2202 21.4044Z" fill="white"/>
</svg>

<svg width="30" height="30" fill="none" xmlns="http://www.w3.org/2000/svg"><path d="M19.605 0h-9.21C1.99 0 0 1.99 0 10.395v9.21C0 28.01 1.99 30 10.395 30h9.21C28.01 30 30 28.01 30 19.605v-9.21C30 1.99 27.989 0 19.605 0zm4.615 21.404h-2.18c-.826 0-1.08-.656-2.562-2.16-1.292-1.248-1.863-1.418-2.18-1.418-.445 0-.572.127-.572.741v1.97c0 .529-.17.846-1.567.846-2.308 0-4.87-1.397-6.67-4.001-2.71-3.811-3.45-6.67-3.45-7.262 0-.318.127-.614.74-.614H7.96c.55 0 .763.254.974.847 1.08 3.112 2.88 5.843 3.62 5.843.276 0 .403-.127.403-.826v-3.218c-.085-1.482-.868-1.609-.868-2.138 0-.254.212-.508.55-.508h3.43c.466 0 .635.254.635.804v4.34c0 .466.212.636.339.636.275 0 .508-.17 1.016-.678 1.567-1.757 2.69-4.467 2.69-4.467.147-.317.401-.614.952-.614h2.18c.657 0 .805.339.657.805-.276 1.27-2.943 5.038-2.943 5.038-.233.382-.318.551 0 .974.233.318.995.974 1.503 1.567.932 1.059 1.652 1.948 1.842 2.562.212.614-.106.931-.72.931z" fill="#fff"/></svg>
